packages/core/src/svgs/gob.svg

<svg width="24" height="24" viewBox="0 0 24 24" fill="none" xmlns="http://www.w3.org/2000/svg">
<g clip-path="url(#clip0_31_10883)">
<path d="M0 0H24V24H0V0Z" fill="#F0F3FA"/>
<path d="M12.0001 19.2858C16.0239 19.2858 19.2858 16.0239 19.2858 12.0001C19.2858 7.97628 16.0239 4.71436 12.0001 4.71436C7.97628 4.71436 4.71436 7.97628 4.71436 12.0001C4.71436 16.0239 7.97628 19.2858 12.0001 19.2858Z" fill="#FF0534"/>
<path d="M17.1044 12.6213C17.1396 12.3356 17.1511 12.0474 17.1387 11.7598C17.5372 11.6613 17.8972 11.3741 17.7858 10.7141C17.7001 10.1955 17.1687 9.83555 16.5472 9.59983C16.0195 8.60191 15.178 7.80536 14.1527 7.33306C13.1273 6.86076 11.975 6.73895 10.8736 6.98643C9.77218 7.2339 8.78277 7.8369 8.05801 8.70242C7.33325 9.56794 6.9134 10.6479 6.86324 11.7757C6.81307 12.9034 7.13537 14.0164 7.78043 14.9428C8.42548 15.8693 9.35744 16.5577 10.4326 16.902C11.5077 17.2463 12.6662 17.2273 13.7294 16.8479C14.7927 16.4685 15.7015 15.7498 16.3158 14.8027C17.2244 14.3998 18.0001 13.9027 18.0001 13.2855C18.0001 12.7027 17.4815 12.5955 17.1044 12.6213Z" fill="#FABE86"/>
<path d="M14.9999 10.7144C12.857 10.7144 10.3585 11.7858 9.42847 12.4286V12.8572C10.9285 13.7144 13.4999 13.7144 14.9999 13.7144C16.1999 13.7144 16.9285 13.1444 17.1428 12.8572V11.5715C17.1428 11.1429 15.6556 10.7144 14.9999 10.7144Z" fill="white"/>
<path d="M16.0844 12.4929C16.2191 12.2046 16.2879 11.8898 16.2858 11.5715C16.2858 11.3144 16.1487 11.1472 16.0715 10.9286C15.7115 10.8429 15.4158 10.7144 15.0001 10.7144C14.5844 10.7144 14.1944 10.7615 13.8344 10.8472C13.7541 11.0802 13.7135 11.3251 13.7144 11.5715C13.8829 11.5722 14.0474 11.6225 14.1875 11.7162C14.3275 11.8099 14.4368 11.9428 14.5018 12.0983C14.5667 12.2538 14.5844 12.425 14.5526 12.5904C14.5208 12.7559 14.4409 12.9083 14.3229 13.0286C14.5201 13.1915 14.7515 13.2858 15.0001 13.2858C15.1887 13.2858 15.3687 13.2301 15.5315 13.1358C15.4615 13.0581 15.4222 12.9576 15.4212 12.853C15.4202 12.7484 15.4574 12.6471 15.5259 12.568C15.5944 12.489 15.6894 12.4378 15.793 12.4239C15.8967 12.4101 16.0018 12.4346 16.0887 12.4929H16.0844Z" fill="black"/>
<path d="M9.64275 12.5444V12.7286C10.3413 13.0972 11.2756 13.2944 12.2356 13.3929C13.2428 13.5001 14.2499 13.5001 14.9999 13.5001C16.0542 13.5001 16.7056 13.0286 16.9285 12.7801V11.5758L16.9113 11.5458C16.8741 11.5026 16.8308 11.465 16.7828 11.4344C16.2318 11.1394 15.6237 10.9669 14.9999 10.9286C13.9628 10.9286 12.8228 11.1858 11.8285 11.5329C11.0642 11.7869 10.331 12.1262 9.64275 12.5444ZM17.1428 12.8572C16.9285 13.1444 16.1999 13.7144 14.9999 13.7144C13.4999 13.7144 10.9285 13.7144 9.42847 12.8572V12.4286C10.3585 11.7858 12.857 10.7144 14.9999 10.7144C15.6556 10.7144 17.1428 11.1429 17.1428 11.5715V12.8572Z" fill="black"/>
<path d="M9.42857 12.6427C9.42857 12.077 9.06429 11.6356 9 11.5713C9.21429 11.5713 9.64286 11.9913 9.64286 12.6427C9.64286 13.0584 9.42857 13.4999 9 13.7141C9.18429 13.3499 9.42857 13.0927 9.42857 12.6427Z" fill="black"/>
<path d="M17.1044 12.6216C17.1729 12.613 17.2458 12.613 17.3187 12.6216C17.6529 12.6473 18.0001 12.8059 18.0001 13.2859C18.0001 13.903 17.2287 14.4045 16.3158 14.803C15.7014 15.7484 14.793 16.4655 13.7308 16.8437C12.6686 17.2219 11.5115 17.2402 10.4379 16.8959C9.36422 16.5515 8.43363 15.8636 7.78955 14.9382C7.14547 14.0127 6.82366 12.9011 6.87372 11.7747C6.92379 10.6483 7.34294 9.56959 8.06658 8.70492C8.79022 7.84025 9.77817 7.23759 10.8781 6.98984C11.9781 6.74209 13.129 6.86301 14.1535 7.33395C15.178 7.80489 16.0191 8.59971 16.5472 9.5959C17.1687 9.8359 17.7001 10.1959 17.7858 10.7145C17.8972 11.3745 17.5372 11.6573 17.1387 11.7602C17.1506 12.0464 17.1391 12.333 17.1044 12.6173V12.6216ZM16.8644 12.853L16.8944 12.5959C16.9273 12.3215 16.9373 12.0448 16.9244 11.7688L16.9158 11.593L17.0872 11.5502C17.2587 11.5073 17.3958 11.4302 17.4815 11.3188C17.5672 11.2116 17.6229 11.0359 17.5758 10.7488C17.5305 10.5344 17.4086 10.3439 17.2329 10.213C17.0028 10.0341 16.7452 9.89367 16.4701 9.79733C14.5158 9.05161 11.8415 9.36018 10.0715 10.5002C12.0772 8.82875 14.9187 9.06018 16.1872 9.40304C15.6344 8.513 14.8123 7.8223 13.8403 7.43118C12.8683 7.04006 11.797 6.96888 10.7817 7.22798C9.76654 7.48707 8.86031 8.06295 8.19461 8.87204C7.52891 9.68112 7.13837 10.6813 7.07968 11.7274C7.02099 12.7735 7.2972 13.8111 7.86823 14.6896C8.43925 15.568 9.27538 16.2417 10.2552 16.6127C11.2351 16.9837 12.3077 17.0328 13.3173 16.7529C14.327 16.4729 15.2212 15.8785 15.8701 15.0559C14.5329 15.3816 11.5929 15.553 9.64294 13.9288C10.641 14.5016 11.7496 14.8553 12.8951 14.9661C14.0405 15.077 15.1964 14.9425 16.2858 14.5716C16.2815 14.5802 17.1001 14.1773 17.3615 13.9588C17.6529 13.723 17.7858 13.5002 17.7858 13.2859C17.7858 13.0716 17.7001 12.973 17.5887 12.913C17.4644 12.8445 17.2887 12.823 17.1172 12.8316L16.8601 12.853H16.8644Z" fill="black"/>
</g>
<defs>
<clipPath id="clip0_31_10883">
<rect width="24" height="24" fill="white"/>
</clipPath>
</defs>
</svg>

<svg xmlns="http://www.w3.org/2000/svg" width="24" height="24" fill="none" viewBox="0 0 24 24"><g clip-path="url(#a)"><path fill="#F0F3FA" d="M0 0h24v24H0z"/><path fill="#FF0534" d="M12 19.286a7.286 7.286 0 1 0 0-14.572 7.286 7.286 0 0 0 0 14.572"/><path fill="#FABE86" d="M17.104 12.621a5 5 0 0 0 .035-.861c.398-.099.758-.386.647-1.046-.086-.519-.617-.878-1.239-1.114a5.143 5.143 0 1 0-.231 5.203c.908-.403 1.684-.9 1.684-1.517 0-.583-.518-.69-.896-.665"/><path fill="#fff" d="M15 10.714c-2.143 0-4.642 1.072-5.572 1.715v.428c1.5.857 4.072.857 5.572.857 1.2 0 1.928-.57 2.143-.857v-1.285c0-.43-1.487-.858-2.143-.858"/><path fill="#000" d="M16.084 12.493c.135-.288.204-.603.202-.921 0-.258-.137-.425-.215-.643-.36-.086-.655-.215-1.07-.215a5 5 0 0 0-1.167.133c-.08.233-.12.478-.12.725a.857.857 0 0 1 .609 1.457c.197.162.428.257.677.257.189 0 .369-.056.531-.15a.429.429 0 0 1 .558-.643z"/><path fill="#000" d="M9.643 12.544v.185c.698.368 1.633.565 2.593.664 1.007.107 2.014.107 2.764.107 1.054 0 1.706-.471 1.928-.72v-1.204l-.017-.03a.6.6 0 0 0-.128-.112A4.3 4.3 0 0 0 15 10.93c-1.037 0-2.177.257-3.171.604a10.7 10.7 0 0 0-2.186 1.011m7.5.313c-.215.287-.943.857-2.143.857-1.5 0-4.072 0-5.572-.857v-.428c.93-.643 3.429-1.715 5.572-1.715.656 0 2.143.429 2.143.857z"/><path fill="#000" d="M9.429 12.643c0-.566-.365-1.007-.429-1.072.214 0 .643.42.643 1.072 0 .415-.214.857-.643 1.071.184-.364.429-.621.429-1.071"/><path fill="#000" d="M17.104 12.622a1 1 0 0 1 .215 0c.334.025.681.184.681.664 0 .617-.771 1.119-1.684 1.517a5.139 5.139 0 1 1 .231-5.207c.622.24 1.153.6 1.239 1.118.111.66-.249.943-.647 1.046q.018.43-.035.857zm-.24.231.03-.257q.05-.412.03-.827l-.008-.176.171-.043a.7.7 0 0 0 .395-.231c.085-.107.14-.283.094-.57a.9.9 0 0 0-.343-.536 2.7 2.7 0 0 0-.763-.416c-1.954-.745-4.628-.437-6.398.703 2.005-1.671 4.847-1.44 6.115-1.097a4.929 4.929 0 1 0-.317 5.653c-1.337.326-4.277.497-6.227-1.127a8.1 8.1 0 0 0 6.643.643c-.005.008.814-.395 1.075-.613.292-.236.425-.459.425-.673s-.086-.313-.197-.373c-.125-.069-.3-.09-.472-.081l-.257.021z"/></g><defs><clipPath id="a"><path fill="#fff" d="M0 0h24v24H0z"/></clipPath></defs></svg>
